svgs/light/seedling.svg

<svg xmlns="http://www.w3.org/2000/svg" viewBox="0 0 512 512"><!--! Font Awesome Pro 6.3.0 by @fontawesome - https://fontawesome.com License - https://fontawesome.com/license (Commercial License) Copyright 2023 Fonticons, Inc. --><path d="M80 96h-64C7.156 96 0 103.2 0 112C0 226.7 93.31 320 208 320H256v144c0 8.836 7.164 16 16 16s16-7.164 16-16v-160C288 189.3 194.7 96 80 96zM208 288C116.3 288 40.83 217.6 32.72 128H80c91.66 0 167.2 70.41 175.3 160H208zM496 32h-64c-66.75 0-129.9 32.41-168.1 86.66C257.9 125.8 259.5 135.8 266.7 141c7.141 5.125 17.16 3.5 22.33-3.656C322.1 91.41 375.5 64 432 64h47.27c-7.734 83.78-75.48 152.4-160.6 159.4c-8.812 .7187-15.36 8.438-14.64 17.25c.7031 8.375 7.688 14.69 15.94 14.69c.4375 0 .8906-.0313 1.328-.0625C428.2 246.5 512 155.4 512 48C512 39.16 504.8 32 496 32z"/></svg>

<svg xmlns="http://www.w3.org/2000/svg" viewBox="0 0 512 512"><!-- Font Awesome Pro 6.0.0-alpha2 by @fontawesome - https://fontawesome.com License - https://fontawesome.com/license (Commercial License) --><path d="M80 96H16C7.156 96 0 103.156 0 112C0 226.688 93.312 320 208 320H256V464C256 472.836 263.164 480 272 480S288 472.836 288 464V304C288 189.312 194.688 96 80 96ZM208 288C116.344 288 40.828 217.594 32.719 128H80C171.656 128 247.172 198.406 255.281 288H208ZM496 32H432C365.25 32 302.094 64.406 263.047 118.656C257.891 125.812 259.516 135.812 266.688 141C273.828 146.125 283.844 144.5 289.016 137.344C322.078 91.406 375.516 64 432 64H479.266C471.531 147.781 403.781 216.375 318.688 223.406C309.875 224.125 303.328 231.844 304.047 240.656C304.75 249.031 311.734 255.344 319.984 255.344C320.422 255.344 320.875 255.312 321.313 255.281C428.234 246.469 512 155.406 512 48C512 39.156 504.844 32 496 32Z"/></svg>
